epam-assets/icon-sources/18/navigation-more_horiz.svg

<svg xmlns="http://www.w3.org/2000/svg" width="18" height="18" fill="none" viewBox="0 0 18 18">
  <path fill="#6C6F80" fill-rule="evenodd" d="M4.5 7.5C3.675 7.5 3 8.175 3 9s.675 1.5 1.5 1.5S6 9.825 6 9s-.675-1.5-1.5-1.5Zm9 0c-.825 0-1.5.675-1.5 1.5s.675 1.5 1.5 1.5S15 9.825 15 9s-.675-1.5-1.5-1.5ZM9 7.5c-.825 0-1.5.675-1.5 1.5s.675 1.5 1.5 1.5 1.5-.675 1.5-1.5S9.825 7.5 9 7.5Z" clip-rule="evenodd"/>
</svg>

<svg width="18" height="18" viewBox="0 0 18 18" fill="none" xmlns="http://www.w3.org/2000/svg">
<path fill-rule="evenodd" clip-rule="evenodd" d="M4.5 7.5C3.675 7.5 3 8.175 3 9C3 9.825 3.675 10.5 4.5 10.5C5.325 10.5 6 9.825 6 9C6 8.175 5.325 7.5 4.5 7.5ZM13.5 7.5C12.675 7.5 12 8.175 12 9C12 9.825 12.675 10.5 13.5 10.5C14.325 10.5 15 9.825 15 9C15 8.175 14.325 7.5 13.5 7.5ZM9 7.5C8.175 7.5 7.5 8.175 7.5 9C7.5 9.825 8.175 10.5 9 10.5C9.825 10.5 10.5 9.825 10.5 9C10.5 8.175 9.825 7.5 9 7.5Z" fill="#6C6F80"/>
</svg>
